!!!COM: Mozart, Wolfgang Amadeus
!!!OPR: Quartet in D Major
!!!OTL:
!!!OMV: 4
!!!SCT: K 499
!!!SCA: Chronologisch-thematisches Verzeichnis sämtlicher Tonwerke Wolfgang Amade Mozarts (L. von Köchel; 1862, 2/1905, 3/1937, 1947)
!!!YOR: Breitkopf & Härtel Edition
!!!EED: Frances Bennion
!!!ENC: Frances Bennion
!!!CDT: 1756/1/27/-1791/12/5/
!!!OCY: Österreich
!!!YEC: Copyright (c) 1994, 2000 Center for Computer Assisted Research in the Humanities
!!!YEM: Rights to all derivative editions reserved.
!!!YEM: Refer to licensing agreement for further details.
!!!YEN: United States of America
**kern	**kern	**kern	**kern
*k[f#c#]	*k[f#c#]	*k[f#c#]	*k[f#c#]
*D:	*D:	*D:	*D:
*clefG	*clefG	*clefF	*clefC
*M2/4	*M2/4	*M2/4	*M2/4
*tb48	*tb48	*tb48	*tb48
=1	=1	=1	=1
12aa	2r	2r	2r
12gg#	.	.	.
12bb	.	.	.
12aa	.	.	.
12gg	.	.	.
12ff#	.	.	.
=2	=2	=2	=2
12ee	4g	4d	2r
12dd#	.	.	.
12ff#	.	.	.
8ee	4r	4r	.
8r	.	.	.
=3	=3	=3	=3
12gg	4b	4d	2r
12ff#	.	.	.
12aa	.	.	.
8gg	4r	4r	.
8r	.	.	.
=4	=4	=4	=4
2r	2r	2r	2r
=5	=5	=5	=5
12bb	2r	2r	2r
12aa	.	.	.
12ccc	.	.	.
12bb	.	.	.
12aa	.	.	.
12gg	.	.	.
=6	=6	=6	=6
12ff#	4a	4d	2r
12ee	.	.	.
12gg	.	.	.
8ff#	4r	4r	.
8r	.	.	.
=7	=7	=7	=7
12aa	4cc	4d	2r
12gg#	.	.	.
12bb	.	.	.
8aa	4r	4r	.
8r	.	.	.
=8	=8	=8	=8
2r	2r	2r	2r
=9	=9	=9	=9
12ccc	2r	2r	2r
12bb	.	.	.
12ddd	.	.	.
12ccc	.	.	.
12bb	.	.	.
12aa	.	.	.
=10	=10	=10	=10
12gg	2b	[2d	2r
12ff#	.	.	.
12aa	.	.	.
12gg	.	.	.
12bb	.	.	.
12gg	.	.	.
=11	=11	=11	=11
12ff#	2a	2d_	2r
12ee	.	.	.
12gg	.	.	.
12ff#	.	.	.
12aa	.	.	.
12ff#	.	.	.
=12	=12	=12	=12
12ee	2g	2d_	2r
12ff#	.	.	.
12gg	.	.	.
12a	.	.	.
12b	.	.	.
12cc#	.	.	.
=13	=13	=13	=13
12dd	2f#	2d]	2r
12ff#	.	.	.
12aa	.	.	.
12aa	.	.	.
12aa	.	.	.
12aa	.	.	.
=14	=14	=14	=14
12gg	2b	[2D	2r
12bb	.	.	.
12ddd	.	.	.
12ddd	.	.	.
12ddd	.	.	.
12ddd	.	.	.
=15	=15	=15	=15
12ddd	2a	2D_	2r
12aa	.	.	.
12ff#	.	.	.
12ff#	.	.	.
12ff#	.	.	.
12ff#	.	.	.
=16	=16	=16	=16
12aa	2g	2D_	2r
12gg	.	.	.
12ee	.	.	.
12cc#	.	.	.
12cc#	.	.	.
12cc#	.	.	.
=17	=17	=17	=17
12dd	4f#	4D]	2r
12cc#	.	.	.
12b	.	.	.
12a	4r	4r	.
12b	.	.	.
12cc#	.	.	.
=18	=18	=18	=18
12dd	4r	4r	2r
12ee	.	.	.
12ff#	.	.	.
12gg	12c#	4A	.
12ee	12e	.	.
12cc#	12g	.	.
=19	=19	=19	=19
12dd	4f#	4d	2r
12cc#	.	.	.
12b	.	.	.
12a	4r	4r	.
12b	.	.	.
12cc#	.	.	.
=20	=20	=20	=20
12dd	4r	4r	2r
12ee	.	.	.
12ff#	.	.	.
12gg	12c#	4A	.
12ee	12e	.	.
12cc#	12g	.	.
=21	=21	=21	=21
12dd	4f#	4D	2r
12ff#	.	.	.
12ee	.	.	.
12dd	4r	4r	.
12cc#	.	.	.
12b	.	.	.
=22	=22	=22	=22
4a	12f#	12A	12A
.	12e	12G#	12G#
.	12g	12B	12B
[4dd	12f#	12A	12A
.	12e	12G	12G
.	12d	12F#	12F#
=23	=23	=23	=23
4dd]	12g	12E	12E
.	12f#	12D#	12D#
.	12a	12F#	12F#
8.cc#	8g	8E	8E
.	8r	8r	8r
16b	.	.	.
=24	=24	=24	=24
4cc#	12e	12G	12G
.	12d#	12F#	12F#
.	12f#	12A	12A
8.dd	8e	8G	8G
.	8r	8r	8r
32cc#	.	.	.
32dd	.	.	.
=25	=25	=25	=25
4ee	12c#	2r	2r
.	12B	.	.
.	12d	.	.
4e	8c#	.	.
.	8r	.	.
=26	=26	=26	=26
[2ee	12g	12B	12B
.	12f#	12A	12A
.	12a	12c	12c
.	12g	12B	12B
.	12f#	12A	12A
.	12e	12G	12G
=27	=27	=27	=27
4ee]	12a	12F#	12F#
.	12g	12E	12E
.	12b	12G	12G
8.dd	8a	8F#	8F#
.	8r	8r	8r
16cc#	.	.	.
=28	=28	=28	=28
8.dd	12f#	12A	12A
.	12e	12G#	12G#
.	12g	12B	12B
16ee	.	.	.
8.ee	8f#	8A	8A
.	8r	8r	8r
32dd	.	.	.
32ee	.	.	.
=29	=29	=29	=29
4ff#	12d	2r	2r
.	12c#	.	.
.	12e	.	.
4f#	8d	.	.
.	8r	.	.
=30	=30	=30	=30
[2ff#	12a	12c	12c
.	12g#	12B	12B
.	12b	12d	12d
.	12a	12c	12c
.	12g	12B	12B
.	12f#	12A	12A
=31	=31	=31	=31
4ff#]	12b	12G	12G
.	12a	12F#	12F#
.	12cc	12A	12A
8.ee	8b	8G	8G
.	8r	8r	8r
16dd#	.	.	.
=32	=32	=32	=32
8.ee	12g	12B	12B
.	12f#	12A	12A
.	12a	12c	12c
16ff#	.	.	.
8.ff#	8g	8B	8B
.	8r	8r	8r
32ee	.	.	.
32ff#	.	.	.
=33	=33	=33	=33
4gg	12e	2r	2r
.	12d#	.	.
.	12f#	.	.
4g	8e	.	.
.	8r	.	.
=34	=34	=34	=34
[2gg	12b	12d	12d
.	12a#	12c#	12c#
.	12cc#	12e	12e
.	12b	12d	12d
.	12ee	12c#	12c#
.	12dd	12B	12B
=35	=35	=35	=35
12gg]	2cc#	2e	2A
12ee	.	.	.
12cc#	.	.	.
12a	.	.	.
12cc#	.	.	.
12ee	.	.	.
=36	=36	=36	=36
[2gg	12b	12d	12d
.	12a#	12c#	12c#
.	12cc#	12e	12e
.	12b	12d	12d
.	12ee	12c#	12c#
.	12dd	12B	12B
=37	=37	=37	=37
12gg]	2cc#	2e	2A
12ee	.	.	.
12cc#	.	.	.
12a	.	.	.
12cc#	.	.	.
12ee	.	.	.
=38	=38	=38	=38
[2gg	12b	12d	12d
.	12a#	12c#	12c#
.	12cc#	12e	12e
.	12b	12d	12d
.	12ee	12c	12c
.	12dd	12B-	12B-
=39	=39	=39	=39
12gg]	4cc#	4A	4A
12ee	.	.	.
12cc#	.	.	.
12a	4r	4r	4r
12cc#	.	.	.
12ee	.	.	.
=40	=40	=40	=40
12gg	8ee	8cc#	8A
12ee	.	.	.
.	8r	8r	8r
12gg	.	.	.
12gg	8ee	8cc#	8A
12ee	.	.	.
.	8r	8r	8r
12gg	.	.	.
=41	=41	=41	=41
4gg	4ee	4cc#	4A
4r	4r	4r	4r
=42	=42	=42	=42
4g	4c#	4E	4AA
4g	4c#	4E	4AA
=43	=43	=43	=43
2g	2c#	2E	2AA
=44	=44	=44	=44
4.f#	4.d	2r	8DD
.	.	.	8D
.	.	.	8D
8g	8e	.	8D
=45	=45	=45	=45
8a	8f#	2r	8D
8b	8g	.	8D
8cc#	8a	.	8D
8dd	8b	.	8D
=46	=46	=46	=46
8ee	8cc#	2B	8D
8dd	8b	.	8D
8cc#	8a	.	8D
8b	8g	.	8D
=47	=47	=47	=47
8a	8f#	4.c#	8D
8g	8e	.	8D
4r	4r	.	8D
.	.	16B	8D
.	.	16c#	.
=48	=48	=48	=48
4.f#	4.d	4d	8DD
.	.	.	8D
.	.	4r	8D
8g	8e	.	8D
=49	=49	=49	=49
8a	8f#	2r	8D
8b	8g	.	8D
8cc#	8a	.	8D
8dd	8b	.	8D
=50	=50	=50	=50
8ee	8cc#	2B	8D
8dd	8b	.	8D
8cc#	8a	.	8D
8b	8g	.	8D
=51	=51	=51	=51
8a	8f#	4.c#	8D
8g	8e	.	8D
4r	4r	.	8D
.	.	16B	8D
.	.	16c#	.
=52	=52	=52	=52
8r	2f#	2d	2D
8f#	.	.	.
[4dd	.	.	.
=53	=53	=53	=53
8dd]	4e	4B	2GG
8e	.	.	.
[4b	4d	4E	.
=54	=54	=54	=54
8b]	4.c#	4.E	2AA
16c#	.	.	.
16e	.	.	.
8g	.	.	.
8g	8c#	8E	.
=55	=55	=55	=55
8g	8c#	8E	2BB
8f#	8d	8D	.
4f#	4d	4D	.
=56	=56	=56	=56
8r	[2d	2A	2FF#
8a	.	.	.
[4dd	.	.	.
=57	=57	=57	=57
8dd]	2d]	2B	2GG
8e	.	.	.
[4b	.	.	.
=58	=58	=58	=58
8b]	4.c#	4.E	2AA
16c#	.	.	.
16e	.	.	.
8g	.	.	.
8e	8c#	8G	.
=59	=59	=59	=59
4d	4d	4F#	8D
.	.	.	8D
4r	4r	4r	8F#
.	.	.	8A
=60	=60	=60	=60
8r	[2dd	2f#	2d
8ff#	.	.	.
[4ddd	.	.	.
=61	=61	=61	=61
8ddd]	2dd]	2b	2G
8ee	.	.	.
[4bb	.	.	.
=62	=62	=62	=62
8bb]	4.cc#	4.e	2A
16cc#	.	.	.
16ee	.	.	.
8gg	.	.	.
8gg	8cc#	8e	.
=63	=63	=63	=63
8gg	8cc#	8e	2B
8ff#	8dd	8d	.
4ff#	4dd	4d	.
=64	=64	=64	=64
8r	[2dd	2a	2F#
8aa	.	.	.
[4ddd	.	.	.
=65	=65	=65	=65
8ddd]	2dd_	2b	2G
8ee	.	.	.
[4bb	.	.	.
=66	=66	=66	=66
8bb]	2dd_	4cc	2A
16ff#	.	.	.
16aa	.	.	.
8ccc	.	8a	.
8aa	.	8f#	.
=67	=67	=67	=67
8aa	8dd]	2d	2B
8gg	16g	.	.
.	16b	.	.
[4gg	8dd	.	.
.	8dd	.	.
=68	=68	=68	=68
8gg]	[2dd	4.a	2c
16ff#	.	.	.
16aa	.	.	.
8ccc	.	.	.
8aa	.	8f#	.
=69	=69	=69	=69
8aa	8dd]	2d	2B
8gg	16g	.	.
.	16b	.	.
[4gg	8dd	.	.
.	8dd	.	.
=70	=70	=70	=70
8gg]	[2dd	4cc	2A
16ff#	.	.	.
16aa	.	.	.
8ccc	.	8a	.
8aa	.	8f#	.
=71	=71	=71	=71
8aa	8dd]	8f	8B
8gg#	8dd	8f	8B
[4gg#	8dd	8f	8B
.	8dd	8f	8B
=72	=72	=72	=72
4gg#]	8dd	8e	8B
.	8dd	8e	8B
4aa	8dd	8e	8A
.	8dd	8e	8A
=73	=73	=73	=73
8ccc#	8dd	8e	8G#
8bb	8dd	8e	8G#
8aa	8dd	8e	8B
8gg#	8dd	8e	8B
=74	=74	=74	=74
4.ee	8b	8e	8G#
.	8b	8e	8G#
.	8g#	8e	8E
8dd	8g#	8e	8E
=75	=75	=75	=75
4cc#	4a	4e	[2A
4r	4r	4r	.
=76	=76	=76	=76
12ee	2c#	2A	2A]
12dd#	.	.	.
12ff#	.	.	.
12ee	.	.	.
12dd	.	.	.
12cc#	.	.	.
=77	=77	=77	=77
12b	4d	4G#	[2AA
12a#	.	.	.
12cc#	.	.	.
8b	4r	4r	.
8r	.	.	.
=78	=78	=78	=78
12dd	4g#	4B	2AA_
12cc#	.	.	.
12ee	.	.	.
8dd	4r	4r	.
8r	.	.	.
=79	=79	=79	=79
2r	12ff#	12dd	2AA_
.	12ee	12cc#	.
.	12gg	12ee	.
.	8ff#	8dd	.
.	8r	8r	.
=80	=80	=80	=80
12ff#	2B	2G#	2AA_
12ee	.	.	.
12gg	.	.	.
12ff#	.	.	.
12ee	.	.	.
12dd	.	.	.
=81	=81	=81	=81
12cc#	4e	4G	2AA_
12b	.	.	.
12dd	.	.	.
8cc#	4r	4r	.
8r	.	.	.
=82	=82	=82	=82
12ee	4g	4c#	2AA_
12dd#	.	.	.
12ff#	.	.	.
8ee	4r	4r	.
8r	.	.	.
=83	=83	=83	=83
2r	12gg	12ee	2AA_
.	12ff#	12dd#	.
.	12aa	12ff#	.
.	8gg	8ee	.
.	8r	8r	.
=84	=84	=84	=84
12gg	3e	3c#	2AA]
12ff#	.	.	.
12aa	.	.	.
12gg	.	.	.
12ff	12f	12d	.
12ee	12g	12e	.
=85	=85	=85	=85
12dd	2a	2f	[2A
12cc#	.	.	.
12ee	.	.	.
8dd	.	.	.
8r	.	.	.
=86	=86	=86	=86
12dd#	2f#	2c	2A_
12cc#	.	.	.
12ee	.	.	.
8dd#	.	.	.
8r	.	.	.
=87	=87	=87	=87
12ee	2g	2c#	4A]
12dd#	.	.	.
12ff#	.	.	.
8ee	.	.	4AA
8r	.	.	.
=88	=88	=88	=88
12gg	3b-	2c#	[2A
12ff#	.	.	.
12aa	.	.	.
12gg	.	.	.
12ff	12a	.	.
12ee	12g	.	.
=89	=89	=89	=89
12dd	2f	2d	2A_
12cc#	.	.	.
12ee	.	.	.
8dd	.	.	.
8r	.	.	.
=90	=90	=90	=90
12dd#	2f#	2c	2A_
12cc#	.	.	.
12ee	.	.	.
8dd#	.	.	.
8r	.	.	.
=91	=91	=91	=91
12ee	2g	2c#	4A]
12dd#	.	.	.
12ff#	.	.	.
8ee	.	.	4AA
8r	.	.	.
=92	=92	=92	=92
12gg	3e	3c#	12B-
12ff#	.	.	12A
12aa	.	.	12c
12gg	.	.	12B-
12ff	12f	12d	12A
12ee	12g	12e	12G
=93	=93	=93	=93
4dd	12a	4f	2F
.	12g	.	.
.	12b-	.	.
[4aa	12a	4d	.
.	12f	.	.
.	12e	.	.
=94	=94	=94	=94
4aa]	4d	12d	[2FF
.	.	12c#	.
.	.	12e	.
16gg	4a	12d	.
8.ff	.	.	.
.	.	12c	.
.	.	12B-	.
=95	=95	=95	=95
16ee	12cc	4A	4FF]
8.dd#	.	.	.
.	12b	.	.
.	12cc	.	.
[4dd#	12cc	[4a	4F
.	12b	.	.
.	12cc	.	.
=96	=96	=96	=96
4dd#]	12cc	4a]	4F
.	12b	.	.
.	12cc	.	.
4dd#	12cc	4A	4F
.	12b	.	.
.	12a	.	.
=97	=97	=97	=97
12ee	4g#	4B	4E
12ee	.	.	.
12ee	.	.	.
12ee	4r	4r	4r
12ee	.	.	.
12ee	.	.	.
=98	=98	=98	=98
12ee	2r	2r	3r
12ee	.	.	.
12ee	.	.	.
12ee	.	.	.
12ee	.	.	12GG#
12ee	.	.	12FF#
=99	=99	=99	=99
12ee	12dd	2r	12EE
12ee	12dd	.	12BB
12ee	12dd	.	12AA
12ee	12dd	.	12GG#
12ee	12dd	.	12D
12ee	12dd	.	12C#
=100	=100	=100	=100
12ee	12dd	2r	12BB
12ee	12dd	.	12F#
12ee	12dd	.	12E
12ee	12dd	.	12D
12ee	12dd	.	12B
12ee	12dd	.	12A
=101	=101	=101	=101
12ee	12b	12r	4G#
12eee	12b	12ee	.
12ee	12b	12dd	.
12ee	12cc#	12cc#	8A
12ee	12cc#	12a	.
.	.	.	8r
12ee	12cc#	12g#	.
=102	=102	=102	=102
12ee	12cc#	12f#	3r
12ee	12cc#	12e	.
12ee	12cc#	12d	.
12ee	12cc#	12c#	.
12ee	12cc#	12B	12GG#
12ee	12cc#	12A	12FF#
=103	=103	=103	=103
12ee	12dd	4G#	12EE
12ee	12dd	.	12BB
12ee	12dd	.	12AA
12ee	12dd	4r	12GG#
12ee	12dd	.	12D
12ee	12dd	.	12C#
=104	=104	=104	=104
12ee	12dd	2r	12BB
12ee	12dd	.	12F#
12ee	12dd	.	12E
12ee	12dd	.	12D
12ee	12dd	.	12B
12ee	12dd	.	12A
=105	=105	=105	=105
12ee	12b	12r	4G#
12eee	12b	12ee	.
12ee	12b	12dd	.
12ee	12cc#	12cc#	8A
12ee	12cc#	12a	.
.	.	.	8r
12ee	12cc#	12g#	.
=106	=106	=106	=106
12ee	12cc#	12f#	2r
12ee	12cc#	12e	.
12ee	12cc#	12d	.
12ee	12cc#	12c#	.
12ee	12cc#	12B	.
12ee	12cc#	12A	.
=107	=107	=107	=107
[2ff#	12cc#	[2d	2r
.	12b#	.	.
.	12cc#	.	.
.	12cc#	.	.
.	12b#	.	.
.	12cc#	.	.
=108	=108	=108	=108
12ff#]	2b#	2d]	2r
12aa	.	.	.
12gg#	.	.	.
12aa	.	.	.
12gg#	.	.	.
12ff#	.	.	.
=109	=109	=109	=109
4ee#	4b	4c#	2r
4ff#	4a	4d	.
=110	=110	=110	=110
2gg	2ee 2a	2c#	2C#
=111	=111	=111	=111
8ee#	8cc#	4.a	4D
8ff#	8dd	.	.
8dd	8f#	.	4D
8b	8d	8f#	.
=112	=112	=112	=112
4a	4c#	4e	4E
8cc#	8e	4g#	4EE
8b	8d	.	.
=113	=113	=113	=113
4a	4c#	12a	4AA
.	.	12e	.
.	.	12e	.
4r	4r	12e	4r
.	.	12e	.
.	.	12e	.
=114	=114	=114	=114
3r	2r	12e	2r
.	.	12e	.
.	.	12e	.
.	.	12e	.
12g#	.	12e	.
12f#	.	12e	.
=115	=115	=115	=115
12e	12d	12e	2r
12b	12d	12e	.
12a	12d	12e	.
12g#	12d	12e	.
12dd	12d	12e	.
12cc#	12d	12e	.
=116	=116	=116	=116
12b	12d	12e	2r
12ff#	12d	12e	.
12ee	12d	12e	.
12dd	12d	12e	.
12bb	12d	12e	.
12aa	12d	12e	.
=117	=117	=117	=117
4gg#	12B	12e	12r
.	12B	12ee	12e
.	12B	12e	12d
8aa	12c#	12e	12c#
.	12c#	12e	12A
8r	.	.	.
.	12c#	12e	12G#
=118	=118	=118	=118
3r	12c#	12e	12F#
.	12c#	12e	12E
.	12c#	12e	12D
.	12c#	12e	12C#
12g#	12c#	12e	12BB
12f#	12c#	12e	12AA
=119	=119	=119	=119
12e	12d	12e	4GG#
12b	12d	12e	.
12a	12d	12e	.
12g#	12d	12e	4r
12dd	12d	12e	.
12cc#	12d	12e	.
=120	=120	=120	=120
12b	12d	12e	2r
12ff#	12d	12e	.
12ee	12d	12e	.
12dd	12d	12e	.
12bb	12d	12e	.
12aa	12d	12e	.
=121	=121	=121	=121
4gg#	12B	12e	12r
.	12B	12ee	12e
.	12B	12e	12d
8aa	12c#	12e	12c#
.	12c#	12e	12A
8r	.	.	.
.	12c#	12e	12G#
=122	=122	=122	=122
2r	12c#	12e	12F#
.	12c#	12e	12E
.	12c#	12e	12D
.	12c#	12e	12C#
.	12c#	12e	12BB
.	12c#	12e	12AA
=123	=123	=123	=123
[2aa	12c#	[2f#	[2D
.	12B#	.	.
.	12c#	.	.
.	12c#	.	.
.	12B#	.	.
.	12c#	.	.
=124	=124	=124	=124
12aa]	2c#	2f#_	2D]
12gg#	.	.	.
12aa	.	.	.
12aa	.	.	.
12gg#	.	.	.
12aa	.	.	.
=125	=125	=125	=125
[2aa	12c	2f#_	[2D#
.	12B	.	.
.	12c	.	.
.	12c	.	.
.	12B	.	.
.	12c	.	.
=126	=126	=126	=126
12aa]	2c	12f#]	2D#]
12gg#	.	12e#	.
12aa	.	12f#	.
12aa	.	12f#	.
12gg#	.	12e#	.
12aa	.	12f#	.
=127	=127	=127	=127
12eee	4c#	4a	4E
12ccc#	.	.	.
12aa	.	.	.
12aa	4r	4r	4r
12aa	.	.	.
12aa	.	.	.
=128	=128	=128	=128
12ccc#	4ee	4a	4E
12aa	.	.	.
12ee	.	.	.
12ee	4r	4r	4r
12ee	.	.	.
12ee	.	.	.
=129	=129	=129	=129
12aa	4cc#	4e	4E
12ee	.	.	.
12cc#	.	.	.
12cc#	4r	4r	4r
12cc#	.	.	.
12cc#	.	.	.
=130	=130	=130	=130
4ee	4e	4c#	2EE
4g#	4d	4B	.
=131	=131	=131	=131
4.cc#	4.a	4A	8AA
.	.	.	8A
.	.	4r	8A
8dd	8b	.	8A
=132	=132	=132	=132
8ee	8cc#	2r	8A
8ff#	8dd	.	8A
8gg#	8ee	.	8A
8aa	8ff#	.	8A
=133	=133	=133	=133
8bb	8gg#	2f#	8A
8aa	8ff#	.	8A
8gg#	8ee	.	8A
8ff#	8dd	.	8A
=134	=134	=134	=134
8ee	8cc#	4.g#	8A
8dd	8b	.	8A
4r	4r	.	8A
.	.	16f#	8A
.	.	16g#	.
=135	=135	=135	=135
8cc#	8e	4a	4A
8ee	8c#	.	.
8dd	8f#	8r	4D
8b	8d	8f#	.
=136	=136	=136	=136
8b	8d	8f#	4E
8a	8c#	8e	.
8a	8c#	8e	4E
8g#	8B	8d	.
=137	=137	=137	=137
4.cc#	4.a	4c#	8AA
.	.	.	8A
.	.	4r	8A
8dd	8b	.	8A
=138	=138	=138	=138
8ee	8cc#	2r	8A
8ff#	8dd	.	8A
8gg#	8ee	.	8A
8aa	8ff#	.	8A
=139	=139	=139	=139
8bb	8gg#	2f#	8A
8aa	8ff#	.	8A
8gg#	8ee	.	8A
8ff#	8dd	.	8A
=140	=140	=140	=140
8ee	8cc#	4.g#	8A
8dd	8b	.	8A
4r	4r	.	8A
.	.	16f#	8A
.	.	16g#	.
=141	=141	=141	=141
8bb	8gg#	4.a	8A
8aa	8ff#	.	8A
8gg#	8ee	.	8A
8ff#	8dd	8a#	8A
=142	=142	=142	=142
8ee	8cc#	8b	8A
8dd#	8b#	8f#	8A
8dd	8b	8g#	8A
8r	8r	8e	8A
=143	=143	=143	=143
8cc#	8e	4a	4A
8ee	8c#	.	.
8dd	8f#	8r	4D
8b	8d	8f#	.
=144	=144	=144	=144
8b	8d	8f#	4E
8a	8c#	8e	.
8a	8c#	8e	4E
8g#	8B	8d	.
=145	=145	=145	=145
4a	12a	3c#	[2AA
.	12g#	.	.
.	12b	.	.
4r	12a	.	.
.	12g#	12B	.
.	12f#	12A	.
=146	=146	=146	=146
12dd	2e	3G#	2AA_
12cc#	.	.	.
12ee	.	.	.
12dd	.	.	.
12cc#	.	12A	.
12b	.	12B	.
=147	=147	=147	=147
2a	12a	3c#	2AA_
.	12g#	.	.
.	12b	.	.
.	12a	.	.
.	12g#	12B	.
.	12f#	12A	.
=148	=148	=148	=148
12dd	[2e	3G#	2AA]
12cc#	.	.	.
12ee	.	.	.
12dd	.	.	.
12cc#	.	12A	.
12b	.	12B	.
=149	=149	=149	=149
12a	8e]	8c#	8AA
12g#	.	.	.
.	4.r	4.r	4.r
12b	.	.	.
12a	.	.	.
12cc#	.	.	.
12dd	.	.	.
=150	=150	=150	=150
12ee	8a	8c#	8A
12dd#	.	.	.
.	8r	8r	8r
12ff#	.	.	.
12ee	8a	8c#	8A
12dd	.	.	.
.	8r	8r	8r
12cc#	.	.	.
=151	=151	=151	=151
12b	4g#	4d	4A
12a#	.	.	.
12cc#	.	.	.
12b	4r	4r	4r
12dd	.	.	.
12ee	.	.	.
=152	=152	=152	=152
12ff#	8g#	8d 8B	8A
12ee	.	.	.
.	8r	8r	8r
12gg	.	.	.
12ff#	8g#	8d 8B	8A
12ee	.	.	.
.	8r	8r	8r
12dd	.	.	.
=153	=153	=153	=153
12cc#	4g	4e 4c#	4A
12b	.	.	.
12dd	.	.	.
12cc#	4r	4r	4r
12ee	.	.	.
12ff#	.	.	.
=154	=154	=154	=154
12gg	8cc# 8e	8a 8g	8A
12ff#	.	.	.
.	8r	8r	8r
12aa	.	.	.
12gg	8cc# 8e	8a 8g	8A
12ff#	.	.	.
.	8r	8r	8r
12ee	.	.	.
=155a	=155a	=155a	=155a
12dd	4dd 4d	4a 4f#	4d
12cc#	.	.	.
12ee	.	.	.
8dd	4r	4r	4r
8r	.	.	.
=155b	=155b	=155b	=155b
12dd	4dd 4d	4a 4f#	4d
12cc#	.	.	.
12ee	.	.	.
12dd	4r	4r	4r
12ff#	.	.	.
12gg	.	.	.
=156	=156	=156	=156
12aa	8dd	8f#	8d
12gg#	.	.	.
.	8r	8r	8r
12bb	.	.	.
12aa	8dd	8f#	8d
12gg	.	.	.
.	8r	8r	8r
12ff#	.	.	.
=157	=157	=157	=157
12ee	4cc#	4g	4d
12dd#	.	.	.
12ff#	.	.	.
12ee	4r	4r	4r
12gg	.	.	.
12aa	.	.	.
=158	=158	=158	=158
12bb	8cc# 8e	8g	8d
12aa	.	.	.
.	8r	8r	8r
12ccc	.	.	.
12bb	8cc# 8e	8g	8d
12aa	.	.	.
.	8r	8r	8r
12gg	.	.	.
=159	=159	=159	=159
12ff#	4cc 4d	4a 4f#	4d
12ee	.	.	.
12gg	.	.	.
8ff#	4r	4r	4r
8r	.	.	.
=160	=160	=160	=160
12aa	4ff#	4cc	4d
12gg#	.	.	.
12bb	.	.	.
8aa	4r	4r	4r
8r	.	.	.
=161	=161	=161	=161
12ccc	4aa	4f#	4d
12bb	.	.	.
12ddd	.	.	.
8ccc	4r	4r	4r
8r	.	.	.
=162	=162	=162	=162
2r	2r	2r	2r
=163	=163	=163	=163
4.b	4.g	2r	8GG
.	.	.	8G
.	.	.	8G
8cc	8a	.	8G
=164	=164	=164	=164
8dd	8b	2r	8G
8ee	8cc	.	8G
8ff#	8dd	.	8G
8gg	8ee	.	8G
=165	=165	=165	=165
8aa	8ff#	2e	8G
8gg	8ee	.	8G
8ff#	8dd	.	8G
8ee	8cc	.	8G
=166	=166	=166	=166
8dd	8b	4.f#	8G
8cc	8a	.	8G
4r	4r	.	8G
.	.	16e	8G
.	.	16f#	.
=167	=167	=167	=167
4.b	4.g	4g	8GG
.	.	.	8G
.	.	4r	8G
8cc	8a	.	8G
=168	=168	=168	=168
8dd	8b	2r	8G
8ee	8cc	.	8G
8ff#	8dd	.	8G
8gg	8ee	.	8G
=169	=169	=169	=169
8aa	8ff#	2e	8G
8gg	8ee	.	8G
8ff#	8dd	.	8G
8ee	8cc	.	8G
=170	=170	=170	=170
8dd	8b	4.f#	8G
8cc	8a	.	8G
4r	4r	.	8G
.	.	16e	8G
.	.	16f#	.
=171	=171	=171	=171
8r	4d	2g	2G
8b	.	.	.
[4gg	4b	.	.
=172	=172	=172	=172
8gg]	4a	4e	2C
8a	.	.	.
[4ee	4g	[4A	.
=173	=173	=173	=173
8ee]	4f#	4A]	4D
16f#	.	.	.
16a	.	.	.
8cc	[4a	4f#	4D#
8cc	.	.	.
=174	=174	=174	=174
8cc	8a]	4e	4E
8b	8g#	.	.
4b	4g#	8f	4D
.	.	8e	.
=175	=175	=175	=175
8r	[2a	2e	2C
8ee	.	.	.
[4aa	.	.	.
=176	=176	=176	=176
8aa]	2a]	4f	2D
8b	.	.	.
[4ff	.	[4B	.
=177	=177	=177	=177
8ff]	4g#	4B]	4E
16g#	.	.	.
16b	.	.	.
8dd	[4b	4g#	4E#
8dd	.	.	.
=178	=178	=178	=178
8dd	8b]	8r	4F#
8cc#	8a#	16F#	.
.	.	16c#	.
4cc#	4a#	8e	4r
.	.	8e	.
=179	=179	=179	=179
[2b	8r	2d	2r
.	8ff#	.	.
.	[4bb	.	.
=180	=180	=180	=180
2b]	8bb]	2e	2r
.	8cc#	.	.
.	[4gg	.	.
=181	=181	=181	=181
2a#	8gg]	4c#	12E
.	.	.	12D#
.	16a#	.	.
.	.	.	12F#
.	16cc#	.	.
.	8ee	4r	12E
.	.	.	12D
.	8ee	.	.
.	.	.	12C#
=182	=182	=182	=182
8f#	8ee	12a	2BB
.	.	12g#	.
16dd#	8dd#	.	.
.	.	12b	.
16ff#	.	.	.
8aa	4dd#	12a	.
.	.	12g	.
8aa	.	.	.
.	.	12f#	.
=183	=183	=183	=183
8aa	8B	2e	12D
.	.	.	12C#
8gg#	16g#	.	.
.	.	.	12E
.	16b	.	.
4gg#	8dd	.	12D
.	.	.	12C#
.	8dd	.	.
.	.	.	12BB
=184	=184	=184	=184
8e	8dd	12g	2AA
.	.	12f#	.
16cc#	8cc#	.	.
.	.	12a	.
16ee	.	.	.
8gg	4cc#	12g	.
.	.	12f#	.
8gg	.	.	.
.	.	12e	.
=185	=185	=185	=185
8gg	8A	2d	12C
.	.	.	12BB
8ff#	16f#	.	.
.	.	.	12D
.	16a	.	.
4ff#	8cc	.	12C
.	.	.	12BB
.	8cc	.	.
.	.	.	12AA
=186	=186	=186	=186
8d	8cc	4f	2GG
16b	8b	.	.
16dd	.	.	.
8ee#	[4b	[4d	.
8ee#	.	.	.
=187	=187	=187	=187
8ff#	4b]	4d]	2FF#
16b	.	.	.
16dd	.	.	.
8ff#	[4b	[4d	.
8ff#	.	.	.
=188	=188	=188	=188
2gg#	8b]	8d]	2EE#
.	8dd	8B	.
.	8cc#	8c#	.
.	8b	8d	.
=189	=189	=189	=189
[2ff#	8a#	2c#	2EE
.	16c#	.	.
.	16f#	.	.
.	8a#	.	.
.	8a#	.	.
=190	=190	=190	=190
2ff#]	8b	4d#	2DD#
.	16d#	.	.
.	16f#	.	.
.	8b	[4f#	.
.	8b	.	.
=191	=191	=191	=191
2r	2b#	8f#]	2DD
.	.	8a	.
.	.	8g#	.
.	.	8f#	.
=192	=192	=192	=192
12bb	4cc#	8e#	4CC#
12aa#	.	.	.
.	.	16c#	.
12ccc#	.	.	.
.	.	16g#	.
12bb	4r	8b	4r
12aa	.	.	.
.	.	8b	.
12gg#	.	.	.
=193	=193	=193	=193
2ff#	12ee	8b	8r
.	12dd#	.	.
.	.	8a#	16FF#
.	12ff#	.	.
.	.	.	16C#
.	12ee	4a#	8E
.	12dd	.	.
.	.	.	8E
.	12cc#	.	.
=194	=194	=194	=194
12aa	2b	8r	8E
12gg#	.	.	.
.	.	16B	8D#
12bb	.	.	.
.	.	16f#	.
12aa	.	8a	4D#
12gg	.	.	.
.	.	8a	.
12ff#	.	.	.
=195	=195	=195	=195
2ee	12dd	8a	8r
.	12cc#	.	.
.	.	8g#	16EE
.	12ee	.	.
.	.	.	16BB
.	12dd	4g#	8D
.	12cc#	.	.
.	.	.	8D
.	12b	.	.
=196	=196	=196	=196
12gg	[2a	8r	8D
12ff#	.	.	.
.	.	16A	8C#
12aa	.	.	.
.	.	16e	.
12gg	.	8g	4C#
12ff#	.	.	.
.	.	8g	.
12ee	.	.	.
=197	=197	=197	=197
12dd	4a]	8g	4r
12cc#	.	.	.
.	.	8f#	.
12ee	.	.	.
12dd	4r	4f#	4DD
12ff#	.	.	.
12gg	.	.	.
=198	=198	=198	=198
12aa	2r	4r	[2D
12gg#	.	.	.
12bb	.	.	.
12aa	.	4d	.
12gg	.	.	.
12ff#	.	.	.
=199	=199	=199	=199
12ee	2r	4b	2D_
12dd#	.	.	.
12ff#	.	.	.
8ee	.	4g	.
8r	.	.	.
=200	=200	=200	=200
12gg	12b	4e	2D_
12ff#	12a	.	.
12aa	12cc	.	.
8gg	12b	4d	.
.	12g	.	.
8r	.	.	.
.	12f#	.	.
=201	=201	=201	=201
2r	12e	[2c#	4D]
.	12d#	.	.
.	12f#	.	.
.	8e	.	4DD
.	8r	.	.
=202	=202	=202	=202
12bb	12g	4c#]	[2D
12aa	12f#	.	.
12ccc	12a	.	.
12bb	8g	4e	.
12aa	.	.	.
.	8r	.	.
12gg	.	.	.
=203	=203	=203	=203
12ff#	2r	4cc	2D_
12ee	.	.	.
12gg	.	.	.
8ff#	.	4a	.
8r	.	.	.
=204	=204	=204	=204
12aa	12cc	4f#	2D_
12gg#	12b	.	.
12bb	12dd	.	.
8aa	12cc	4e-	.
.	12a	.	.
8r	.	.	.
.	12g	.	.
=205	=205	=205	=205
2r	12f#	4c	4D]
.	12e	.	.
.	12g	.	.
.	8f#	4A	4DD
.	8r	.	.
=206	=206	=206	=206
12ccc	12a	4F#	4D
12bb	12g#	.	.
12ddd	12b	.	.
12ccc	8a	4D	4r
12bb	.	.	.
.	8r	.	.
12aa	.	.	.
=207	=207	=207	=207
12gg	2b	[2d	2r
12ff#	.	.	.
12aa	.	.	.
12gg	.	.	.
12bb	.	.	.
12gg	.	.	.
=208	=208	=208	=208
12ff#	2a	2d_	2r
12ee	.	.	.
12gg	.	.	.
12ff#	.	.	.
12aa	.	.	.
12ff#	.	.	.
=209	=209	=209	=209
12ee	2g	2d_	2r
12ff#	.	.	.
12gg	.	.	.
12a	.	.	.
12b	.	.	.
12cc#	.	.	.
=210	=210	=210	=210
12dd	2f#	2d]	2r
12ff#	.	.	.
12aa	.	.	.
12aa	.	.	.
12aa	.	.	.
12aa	.	.	.
=211	=211	=211	=211
12gg	2b	[2D	2r
12bb	.	.	.
12ddd	.	.	.
12ddd	.	.	.
12ddd	.	.	.
12ddd	.	.	.
=212	=212	=212	=212
12ddd	2a	2D_	2r
12aa	.	.	.
12ff#	.	.	.
12ff#	.	.	.
12ff#	.	.	.
12ff#	.	.	.
=213	=213	=213	=213
12aa	2g	2D_	2r
12gg	.	.	.
12ee	.	.	.
12cc#	.	.	.
12cc#	.	.	.
12cc#	.	.	.
=214	=214	=214	=214
12dd	4f#	4D]	2r
12cc#	.	.	.
12b	.	.	.
12a	4r	4r	.
12b	.	.	.
12cc#	.	.	.
=215	=215	=215	=215
12dd	4r	4r	2r
12ee	.	.	.
12ff#	.	.	.
12gg	12c#	4A	.
12ee	12e	.	.
12cc#	12g	.	.
=216	=216	=216	=216
12dd	4f#	4d	2r
12cc#	.	.	.
12b	.	.	.
12a	4r	4r	.
12b	.	.	.
12cc#	.	.	.
=217	=217	=217	=217
12dd	4r	4r	2r
12ee	.	.	.
12ff#	.	.	.
12gg	12c#	4A	.
12ee	12e	.	.
12cc#	12g	.	.
=218	=218	=218	=218
12dd	4f#	4D	2r
12ff#	.	.	.
12ee	.	.	.
12dd	4r	4r	.
12cc#	.	.	.
12b	.	.	.
=219	=219	=219	=219
4a	12f	12A	12A
.	12e	12G	12G
.	12g	12B-	12B-
[4dd	12f	12A	12A
.	12e	12G	12G
.	12d	12F	12F
=220	=220	=220	=220
4dd]	12g	12E	12E
.	12f#	12D	12D
.	12a	12F	12F
8.cc#	8g	8E	8E
.	8r	8r	8r
16b	.	.	.
=221	=221	=221	=221
8.cc#	12e	12G	12G
.	12d	12F#	12F#
.	12f	12A	12A
16dd	.	.	.
8.dd	8e	8G	8G
.	8r	8r	8r
32cc#	.	.	.
32dd	.	.	.
=222	=222	=222	=222
4ee	12c#	2r	2r
.	12B	.	.
.	12d	.	.
4e	8c#	.	.
.	8r	.	.
=223	=223	=223	=223
[2ee	12g	12B-	12B-
.	12f#	12A	12A
.	12a	12c	12c
.	12g	12B-	12B-
.	12f	12A	12A
.	12e	12G	12G
=224	=224	=224	=224
4ee]	12a	12F	12F
.	12g	12E	12E
.	12b-	12G	12G
8.dd	8a	8F	8F
.	8r	8r	8r
16cc#	.	.	.
=225	=225	=225	=225
8.dd	12f	12A	12A
.	12e	12G	12G
.	12g	12B-	12B-
16ee	.	.	.
8.ee	8f	8A	8A
.	8r	8r	8r
32dd	.	.	.
32ee	.	.	.
=226	=226	=226	=226
4ff	12d	2r	2r
.	12c#	.	.
.	12e	.	.
4f	8d	.	.
.	8r	.	.
=227	=227	=227	=227
[2ff	12a	12c	12c
.	12g	12B-	12B-
.	12b-	12d	12d
.	12a	12c	12c
.	12g	12B-	12B-
.	12f	12A	12A
=228	=228	=228	=228
12ff]	[2b-	[2c	[2G
12ee	.	.	.
12gg	.	.	.
12ff	.	.	.
12ee	.	.	.
12dd	.	.	.
=229	=229	=229	=229
4cc	12b-]	2c_	12G]
.	12g	.	12E
.	12b-	.	12G
[4ff	12a	.	12F
.	12g	.	12E
.	12f	.	12D
=230	=230	=230	=230
12ff]	[2b-	2c_	4C
12ee	.	.	.
12gg	.	.	.
12ff	.	.	[4G
12ee	.	.	.
12dd	.	.	.
=231	=231	=231	=231
4cc	12b-]	2c_	12G]
.	12g	.	12E
.	12b-	.	12G
[4ff	12a	.	12F
.	12g	.	12E
.	12f	.	12D
=232	=232	=232	=232
12ff]	4b-	4c]	4C
12ee	.	.	.
12gg	.	.	.
12ff	4r	4r	4r
12ee	.	.	.
12gg	.	.	.
=233	=233	=233	=233
12bb-	8gg	8ee	8c
12gg	.	.	.
.	8r	8r	8r
12bb-	.	.	.
12bb-	8gg	8ee	8c
12gg	.	.	.
.	8r	8r	8r
12bb-	.	.	.
=234	=234	=234	=234
4bb-	4gg	4ee	4c
4r	4r	4r	4r
=235	=235	=235	=235
4b-	4e	4G	4C
4b-	4e	4G	4C
=236	=236	=236	=236
2b-	2e	2G	2C
=237	=237	=237	=237
4.a	4.f	2r	8FF
.	.	.	8F
.	.	.	8F
8b-	8g	.	8F
=238	=238	=238	=238
8cc	8a	2r	8F
8dd	8b-	.	8F
8ee	8cc	.	8F
8ff	8dd	.	8F
=239	=239	=239	=239
8gg	8ee	2d	8F
8ff	8dd	.	8F
8ee	8cc	.	8F
8dd	8b-	.	8F
=240	=240	=240	=240
8cc	8a	4.e	8F
8b-	8g	.	8F
4r	4r	.	8F
.	.	16d	8F
.	.	16e	.
=241	=241	=241	=241
4.a	4.f	4f	8FF
.	.	.	8F
.	.	4r	8F
8b-	8g	.	8F
=242	=242	=242	=242
8cc	8a	2r	8F
8dd	8b-	.	8F
8ee	8cc	.	8F
8ff	8dd	.	8F
=243	=243	=243	=243
8gg	8ee	2d	8F
8ff	8dd	.	8F
8ee	8cc	.	8F
8dd	8b-	.	8F
=244	=244	=244	=244
8cc	8a	4.e	8F
8b-	8g	.	8F
4r	4r	.	8F
.	.	16d	8F
.	.	16e	.
=245	=245	=245	=245
[2a	2r	12f	[2F
.	.	12e	.
.	.	12g	.
.	.	12f	.
.	.	12e	.
.	.	12d	.
=246	=246	=246	=246
4a]	[2f	4c	12F]
.	.	.	12E
.	.	.	12G
4b	.	4d	12F
.	.	.	12E
.	.	.	12D
=247	=247	=247	=247
4cc	12f]	4G	[2C
.	12e	.	.
.	12g	.	.
4g	12f	4r	.
.	12e	.	.
.	12d	.	.
=248	=248	=248	=248
[2cc	2c	4e	12C]
.	.	.	12BB
.	.	.	12D
.	.	4f#	12C
.	.	.	12BB-
.	.	.	12AA
=249	=249	=249	=249
4cc]	4d	12g	4GG
.	.	12f#	.
.	.	12a	.
[4b	4r	12g	[4G
.	.	12f	.
.	.	12e-	.
=250	=250	=250	=250
4b]	[2g	4d	12G]
.	.	.	12F#
.	.	.	12A
4cc#	.	4e	12G
.	.	.	12F
.	.	.	12E
=251	=251	=251	=251
4dd	12g]	4A	[2D
.	12f#	.	.
.	12a	.	.
4a	12g	4r	.
.	12f	.	.
.	12e	.	.
=252	=252	=252	=252
2dd	2d	4f#	12D]
.	.	.	12C#
.	.	.	12E
.	.	4g#	12D
.	.	.	12C
.	.	.	12BB
=253	=253	=253	=253
4cc#	4e	12a	4AA
.	.	12g#	.
.	.	12b	.
4dd#	4r	12a	4BB
.	.	12g	.
.	.	12f#	.
=254	=254	=254	=254
2ee	12e	4g#	4EE
.	12d#	.	.
.	12f#	.	.
.	12e	4a#	4FF#
.	12d	.	.
.	12c#	.	.
=255	=255	=255	=255
4dd#	4B	12b	4BB
.	.	12a#	.
.	.	12cc#	.
4ee#	4r	12b	4C#
.	.	12a	.
.	.	12g#	.
=256	=256	=256	=256
[2ff#	12f#	4a#	4FF#
.	12e#	.	.
.	12g#	.	.
.	12f#	4b#	4GG#
.	12e	.	.
.	12d#	.	.
=257	=257	=257	=257
12ff#]	4c#	4cc#	4C#
12ee#	.	.	.
12gg#	.	.	.
12ff#	[4b	12C#	4r
12ee#	.	12D#	.
12dd#	.	12E#	.
=258	=258	=258	=258
4cc#	12b]	3F#	2r
.	12a#	.	.
.	12cc#	.	.
[4ee	12b	.	.
.	12a#	12G#	.
.	12g#	12A#	.
=259	=259	=259	=259
12ee]	4f#	4B	3BB
12dd#	.	.	.
12ff#	.	.	.
12ee	4r	[4a	.
12dd#	.	.	12C#
12cc#	.	.	12D#
=260	=260	=260	=260
4b	4r	12a]	3E
.	.	12g#	.
.	.	12b	.
4r	[4dd	12a	.
.	.	12g#	12F#
.	.	12f#	12G#
=261	=261	=261	=261
2r	12dd]	4e	3A
.	12cc#	.	.
.	12ee	.	.
.	12dd	[4g	.
.	12cc#	.	12B
.	12b	.	12c#
=262	=262	=262	=262
12ccc	3a	4g]	[2d
12bb	.	.	.
12ddd	.	.	.
12ccc	.	12f#	.
12bb	12b	12g	.
12aa	12cc	12a	.
=263	=263	=263	=263
12gg	2dd	2b	2d_
12ff#	.	.	.
12aa	.	.	.
8gg	.	.	.
8r	.	.	.
=264	=264	=264	=264
12gg#	2b	2f	2d_
12ff#	.	.	.
12aa	.	.	.
8gg#	.	.	.
8r	.	.	.
=265	=265	=265	=265
12aa	2cc	2f#	4d]
12gg#	.	.	.
12bb	.	.	.
8aa	.	.	4D
8r	.	.	.
=266	=266	=266	=266
12ccc	3ee-	2f#	[2d
12bb	.	.	.
12ddd	.	.	.
12ccc	.	.	.
12bb-	12dd	.	.
12aa	12cc	.	.
=267	=267	=267	=267
12gg	2b-	2g	2d_
12ff#	.	.	.
12aa	.	.	.
8gg	.	.	.
8r	.	.	.
=268	=268	=268	=268
12gg#	2b	2f	2d_
12ff#	.	.	.
12aa	.	.	.
8gg#	.	.	.
8r	.	.	.
=269	=269	=269	=269
12aa	2cc	2f#	4d]
12gg#	.	.	.
12bb	.	.	.
8aa	.	.	4D
8r	.	.	.
=270	=270	=270	=270
12ccc	3a	3f#	12e-
12bb	.	.	12d
12ddd	.	.	12f
12ccc	.	.	12e-
12bb-	12b-	12g	12d
12aa	12cc	12a	12c
=271	=271	=271	=271
4gg	12dd	4b-	2B-
.	12cc	.	.
.	12ee-	.	.
[4ddd	12dd	[4g	.
.	12b-	.	.
.	12a	.	.
=272	=272	=272	=272
4ddd]	4g	12g]	[2BB-
.	.	12f#	.
.	.	12a	.
16ccc	4dd	12g	.
8.bb-	.	.	.
.	.	12f	.
.	.	12e-	.
=273	=273	=273	=273
16aa	12ff	4d	4BB-]
8.gg#	.	.	.
.	12ee	.	.
.	12ff	.	.
[4gg#	12ff	[4dd	4B-
.	12ee	.	.
.	12ff	.	.
=274	=274	=274	=274
4gg#]	12ff	4dd]	4B-
.	12ee	.	.
.	12ff	.	.
4gg#	12ff	4d	4B-
.	12ee	.	.
.	12dd	.	.
=275	=275	=275	=275
12aa	4cc#	4e	4A
12aa	.	.	.
12aa	.	.	.
12aa	4r	4r	4r
12aa	.	.	.
12aa	.	.	.
=276	=276	=276	=276
12aa	2r	2r	3r
12aa	.	.	.
12aa	.	.	.
12aa	.	.	.
12aa	.	.	12C#
12aa	.	.	12BB
=277	=277	=277	=277
12aa	12gg	2r	12AA
12aa	12gg	.	12E
12aa	12gg	.	12D
12aa	12gg	.	12C#
12aa	12gg	.	12G
12aa	12gg	.	12F#
=278	=278	=278	=278
12aa	12gg	2r	12E
12aa	12gg	.	12B
12aa	12gg	.	12A
12aa	12gg	.	12G
12aa	12gg	.	12e
12aa	12gg	.	12d
=279	=279	=279	=279
12aa	12ee	12r	4c#
12a	12ee	12a	.
12aa	12ee	12g	.
12aa	12ff#	12f#	8d
12aa	12ff#	12d	.
.	.	.	8r
12aa	12ff#	12c#	.
=280	=280	=280	=280
12aa	12ff#	12B	3r
12aa	12ff#	12A	.
12aa	12ff#	12G	.
12aa	12ff#	12F#	.
12aa	12ff#	12E	12C#
12aa	12ff#	12D	12BB
=281	=281	=281	=281
12aa	12gg	4C#	12AA
12aa	12gg	.	12E
12aa	12gg	.	12D
12aa	12gg	4r	12C#
12aa	12gg	.	12G
12aa	12gg	.	12F#
=282	=282	=282	=282
12aa	12gg	2r	12E
12aa	12gg	.	12B
12aa	12gg	.	12A
12aa	12gg	.	12G
12aa	12gg	.	12e
12aa	12gg	.	12d
=283	=283	=283	=283
12aa	12ee	12r	4c#
12a	12ee	12a	.
12aa	12ee	12g	.
12aa	12ff#	12f#	8d
12aa	12ff#	12d	.
.	.	.	8r
12aa	12ff#	12c#	.
=284	=284	=284	=284
12aa	12ff#	12B	2r
12aa	12ff#	12A	.
12aa	12ff#	12G	.
12aa	12ff#	12F#	.
12aa	12ff#	12E	.
12aa	12ff#	12D	.
=285	=285	=285	=285
[2bb	12ff#	[2G	2r
.	12ee#	.	.
.	12ff#	.	.
.	12ff#	.	.
.	12ee#	.	.
.	12ff#	.	.
=286	=286	=286	=286
12bb]	2ee#	4G]	2r
12ddd	.	.	.
12ccc#	.	.	.
12ddd	.	4g	.
12ccc#	.	.	.
12bb	.	.	.
=287	=287	=287	=287
4aa#	4ee	4f#	2r
4bb	4dd	4g	.
=288	=288	=288	=288
2ccc	2aa 2a	2dd 2d	2FF#
=289	=289	=289	=289
8aa#	8ff#	4.dd	4GG
8bb	8gg	.	.
8gg	8b	.	4G
8ee	8g	8b	.
=290	=290	=290	=290
4dd	4f#	4a	4A
8ff#	8a	4c#	4AA
8ee	8g	.	.
=291	=291	=291	=291
4dd	12f#	4d	4D
.	12A	.	.
.	12A	.	.
4r	12A	4r	4r
.	12A	.	.
.	12A	.	.
=292	=292	=292	=292
3r	12A	2r	2r
.	12A	.	.
.	12A	.	.
.	12A	.	.
12c#	12A	.	.
12B	12A	.	.
=293	=293	=293	=293
12A	12A	12G	2r
12e	12A	12G	.
12d	12A	12G	.
12c#	12A	12G	.
12g	12A	12G	.
12f#	12A	12G	.
=294	=294	=294	=294
12e	12A	12G	2r
12b	12A	12G	.
12a	12A	12G	.
12g	12A	12G	.
12ee	12A	12G	.
12dd	12A	12G	.
=295	=295	=295	=295
4cc#	12A	12E	12r
.	12a	12E	12A
.	12A	12E	12G
8dd	12A	12F#	12F#
.	12A	12F#	12D
8r	.	.	.
.	12A	12F#	12C#
=296	=296	=296	=296
3r	12A	12F#	12BB
.	12a	12f#	12AA
.	12a	12f#	12GG
.	12a	12f#	12FF#
12cc#	12a	12f#	12EE
12b	12a	12f#	12DD
=297	=297	=297	=297
12a	12a	12g	4CC#
12ee	12a	12g	.
12dd	12a	12g	.
12cc#	12a	12g	4r
12gg	12a	12g	.
12ff#	12a	12g	.
=298	=298	=298	=298
12ee	12a	12g	2r
12bb	12a	12g	.
12aa	12a	12g	.
12gg	12a	12g	.
12eee	12a	12g	.
12ddd	12a	12g	.
=299	=299	=299	=299
4ccc#	12a	12e	12r
.	12aa	12e	12a
.	12a	12e	12g
8ddd	12a	12f#	12f#
.	12a	12f#	12d
8r	.	.	.
.	12a	12f#	12c#
=300	=300	=300	=300
2r	12a	12f#	12B
.	12a	12f#	12A
.	12a	12f#	12G
.	12a	12f#	12F#
.	12a	12f#	12E
.	12a	12f#	12D
=301	=301	=301	=301
[2ddd	12b	[2f#	[2G
.	12a#	.	.
.	12b	.	.
.	12b	.	.
.	12a#	.	.
.	12b	.	.
=302	=302	=302	=302
12ddd]	[2b	2f#]	2G]
12ccc#	.	.	.
12ddd	.	.	.
12ddd	.	.	.
12ccc#	.	.	.
12ddd	.	.	.
=303	=303	=303	=303
[2ddd	2b_	12f	[2G#
.	.	12e	.
.	.	12f	.
.	.	12f	.
.	.	12e	.
.	.	12f	.
=304	=304	=304	=304
12ddd]	12b]	2f	2G#]
12ccc#	12a#	.	.
12ddd	12b	.	.
12ddd	12b	.	.
12ccc#	12a#	.	.
12ddd	12b	.	.
=305	=305	=305	=305
12aaa	4dd	4f#	4A
12fff#	.	.	.
12ddd	.	.	.
12ddd	4r	4r	4r
12ddd	.	.	.
12ddd	.	.	.
=306	=306	=306	=306
12fff#	4dd	4a	4A
12ddd	.	.	.
12aa	.	.	.
12aa	4r	4r	4r
12aa	.	.	.
12aa	.	.	.
=307	=307	=307	=307
12ddd	4ff#	4a	4A
12aa	.	.	.
12ff#	.	.	.
12ff#	4r	4r	4r
12ff#	.	.	.
12ff#	.	.	.
=308	=308	=308	=308
4aa	4a	4f#	2AA
4cc#	4g	4e	.
=309	=309	=309	=309
4.ff#	4.dd	4d	8D
.	.	.	8d
.	.	4r	8d
8gg	8ee	.	8d
=310	=310	=310	=310
8aa	8ff#	2r	8d
8bb	8gg	.	8d
8ccc#	8aa	.	8d
8ddd	8bb	.	8d
=311	=311	=311	=311
8eee	8ccc#	2b	8d
8ddd	8bb	.	8d
8ccc#	8aa	.	8d
8bb	8gg	.	8d
=312	=312	=312	=312
8aa	8ff#	4.cc#	8d
8gg	8ee	.	8d
4r	4r	.	8d
.	.	16b	8d
.	.	16cc#	.
=313	=313	=313	=313
8ff#	8a	4dd	4d
8aa	8f#	.	.
8gg	8b	8r	4G
8ee	8g	8b	.
=314	=314	=314	=314
8ee	8g	8b	4A
8dd	8f#	8a	.
8dd	8f#	8a	4AA
8cc#	8e	8g	.
=315	=315	=315	=315
4.f#	4.d	4f#	8D
.	.	.	8D
.	.	4r	8D
8g	8e	.	8D
=316	=316	=316	=316
8a	8f#	2r	8D
8b	8g	.	8D
8cc#	8a	.	8D
8dd	8b	.	8D
=317	=317	=317	=317
8ee	8cc#	2B	8GG
8dd	8b	.	8GG
8cc#	8a	.	8GG
8b	8g	.	8GG
=318	=318	=318	=318
8a	8f#	4.c#	8AA
8g	8e	.	8AA
4r	4r	.	8AA
.	.	16B	8AA
.	.	16c#	.
=319	=319	=319	=319
8ee	8cc#	4d	8BB
8dd	8b	.	8BB
8cc#	8a	4D	8BB
8b	8g	.	8BB
=320	=320	=320	=320
8a	8f#	4.A	8C#
8g	8e	.	8C#
4r	4r	.	8C#
.	.	8A#	8C#
=321	=321	=321	=321
8ee	8cc#	2B	8D
8dd	8b	.	8D
8cc#	8a	.	8D
8b	8g	.	8D
=322	=322	=322	=322
8a	8f#	4.c#	8E
8g	8e	.	8E
4r	4r	.	8E
.	.	16B	8E
.	.	16c#	.
=323	=323	=323	=323
8ee	8cc#	4.d	8F#
8dd	8b	.	8F#
8cc#	8a	.	8F#
8b	8g	8d#	8F#
=324	=324	=324	=324
8a	8f#	8e	8G
8g	8e	8B	8G
8g	8e	8e	8G
8g	8e	8d	8G
=325	=325	=325	=325
[2g	[2e	2c#	4A
.	.	.	4A#
=326	=326	=326	=326
8.g]	8.e]	4d	4B
16f#	16d	.	.
8.b	8.g	4B	4G
16g	16e	.	.
=327	=327	=327	=327
4f#	4d	4A	4A
4r	4r	4r	4r
=328	=328	=328	=328
4e	4c#	4G	4AA
4r	4r	4r	4r
=329	=329	=329	=329
4d	12d	3F#	[2DD
.	12c#	.	.
.	12e	.	.
4r	12d	.	.
.	12c#	12E	.
.	12B	12D	.
=330	=330	=330	=330
12g	2A	3C#	2DD]
12f#	.	.	.
12a	.	.	.
12g	.	.	.
12f#	.	12D	.
12e	.	12E	.
=331	=331	=331	=331
2d	12dd	4F#	[2D
.	12cc#	.	.
.	12ee	.	.
.	12dd	12f#	.
.	12cc#	12e	.
.	12b	12d	.
=332	=332	=332	=332
12gg	[2a	3c#	2D]
12ff#	.	.	.
12aa	.	.	.
12gg	.	.	.
12ff#	.	12d	.
12ee	.	12e	.
=333	=333	=333	=333
12dd	4a]	4f#	4d
12cc#	.	.	.
12ee	.	.	.
12dd	4r	4r	4r
12ff#	.	.	.
12gg	.	.	.
=334	=334	=334	=334
12aa	2r	2r	2r
12gg#	.	.	.
12bb	.	.	.
12aa	.	.	.
12gg	.	.	.
12ff#	.	.	.
=335	=335	=335	=335
12ee	4g	4d	2r
12dd#	.	.	.
12ff#	.	.	.
8ee	4r	4r	.
8r	.	.	.
=336	=336	=336	=336
12gg	4b	4d	2r
12ff#	.	.	.
12aa	.	.	.
8gg	4r	4r	.
8r	.	.	.
=337	=337	=337	=337
2r	2r	2r	2r
=338	=338	=338	=338
12bb	2r	2r	2r
12aa	.	.	.
12ccc	.	.	.
12bb	.	.	.
12aa	.	.	.
12gg	.	.	.
=339	=339	=339	=339
12ff#	4a	4d	2r
12ee	.	.	.
12gg	.	.	.
8ff#	4r	4r	.
8r	.	.	.
=340	=340	=340	=340
12aa	4cc	4d	2r
12gg#	.	.	.
12bb	.	.	.
8aa	4r	4r	.
8r	.	.	.
=341	=341	=341	=341
2r	2r	2r	2r
=342	=342	=342	=342
2r	2r	2r	12c
.	.	.	12B
.	.	.	12d
.	.	.	12c
.	.	.	12A
.	.	.	12G
=343	=343	=343	=343
2ccc	2dd#	2a	12F#
.	.	.	12E
.	.	.	12G
.	.	.	8F#
.	.	.	8r
=344	=344	=344	=344
2bb	2dd	2f	12G#
.	.	.	12F#
.	.	.	12A
.	.	.	8G#
.	.	.	8r
=345	=345	=345	=345
2bb-	2cc#	2g	12E
.	.	.	12D#
.	.	.	12F#
.	.	.	8E
.	.	.	8r
=346	=346	=346	=346
2aa	2cc	2d#	12F#
.	.	.	12E
.	.	.	12G
.	.	.	8F#
.	.	.	8r
=347	=347	=347	=347
12b	[2b	[2e	[2G
12ee	.	.	.
12dd#	.	.	.
12ff#	.	.	.
12ee	.	.	.
12gg	.	.	.
=348	=348	=348	=348
12ff#	4b]	4e]	2G]
12aa	.	.	.
12gg	.	.	.
12bb	12g	4B	.
12gg	12b	.	.
12ee	12g	.	.
=349	=349	=349	=349
[2dd	12f#	[2A	4A
.	12d	.	.
.	12f#	.	.
.	12a	.	4A
.	12f#	.	.
.	12d	.	.
=350	=350	=350	=350
4dd]	12a	2A]	4A
.	12f#	.	.
.	12d	.	.
4cc#	12a	.	4A
.	12g	.	.
.	12e	.	.
=351	=351	=351	=351
12dd#	2f#	2c	2A
12cc#	.	.	.
12ee	.	.	.
8dd#	.	.	.
8r	.	.	.
=352	=352	=352	=352
12bb	2dd	2f	2G#
12aa#	.	.	.
12ccc#	.	.	.
8bb	.	.	.
8r	.	.	.
=353	=353	=353	=353
12cc#	2e	2B-	2G
12b	.	.	.
12dd	.	.	.
8cc#	.	.	.
8r	.	.	.
=354	=354	=354	=354
12aa	2cc	2d#	2F#
12gg#	.	.	.
12bb	.	.	.
8aa	.	.	.
8r	.	.	.
=355	=355	=355	=355
2r	12B	4e	4G
.	12e	.	.
.	12d#	.	.
.	12f#	4r	4r
.	12e	.	.
.	12g	.	.
=356	=356	=356	=356
2r	12f#	2r	2r
.	12a	.	.
.	12g	.	.
.	12b	.	.
.	12g	.	.
.	12e	.	.
=357	=357	=357	=357
2r	[2d	12F#	4AA
.	.	12D	.
.	.	12F#	.
.	.	12A	4AA
.	.	12F#	.
.	.	12D	.
=358	=358	=358	=358
2r	4d]	12A	4AA
.	.	12F#	.
.	.	12D	.
.	4c#	12A	4GG
.	.	12G	.
.	.	12E	.
=359	=359	=359	=359
12ddd	[2d	[2A	[2FF#
12ccc#	.	.	.
12eee	.	.	.
12ddd	.	.	.
12ccc#	.	.	.
12bb	.	.	.
=360	=360	=360	=360
12aa	2d]	2A_	2FF#]
12gg#	.	.	.
12bb	.	.	.
12aa	.	.	.
12gg	.	.	.
12ff#	.	.	.
=361	=361	=361	=361
12ee	[2g	2A_	[2C#
12dd#	.	.	.
12ff#	.	.	.
12ee	.	.	.
12dd	.	.	.
12cc#	.	.	.
=362	=362	=362	=362
12b	4g]	2A]	2C#]
12a#	.	.	.
12cc#	.	.	.
12b	4e	.	.
12a	.	.	.
12g	.	.	.
=363	=363	=363	=363
12f#	12d	4A	4D
12e	12c#	.	.
12f#	12d	.	.
12g	12e	4B	4GG
12b	12g	.	.
12g	12e	.	.
=364	=364	=364	=364
4f#	4d	2A	2AA
4e	4c#	.	.
=365	=365	=365	=365
4d	4d	4r	12d
.	.	.	12c#
.	.	.	12e
4dd	[4dd	4f#	12d
.	.	.	12c#
.	.	.	12B
=366	=366	=366	=366
4..ee	4dd]	4a	12A
.	.	.	12G#
.	.	.	12B
.	8.cc#	4A	12A
.	.	.	12G
.	.	.	12F#
16ff#	16dd#	.	.
=367	=367	=367	=367
8.gg	8.ee	4B	12E
.	.	.	12D#
.	.	.	12F#
48aa	48ff#	.	.
48gg	48ee	.	.
48ff#	48dd#	.	.
8.gg	8.ee	8.b	12E
.	.	.	12D
.	.	.	12C#
16aa	16ff#	16cc#	.
=368	=368	=368	=368
8.bb	8.gg	4dd	12BB
.	.	.	12AA#
.	.	.	12C#
48ccc#	48aa	.	.
48bb	48gg	.	.
48aa#	48ff#	.	.
8.bb	8.gg	8.d	12BB
.	.	.	12AA
.	.	.	12GG
16ccc#	16aa	16e	.
=369	=369	=369	=369
4ddd	4aa	4f#	4FF#
4r	4r	4r	4r
=370	=370	=370	=370
4bb	4ff 4dd	4g#	4GG#
4r	4r	4r	4r
=371	=371	=371	=371
12a	12f#	2A	[2AA
12g#	12e#	.	.
12b	12g	.	.
12a	12f#	.	.
12g	12e	.	.
12f#	12d	.	.
=372	=372	=372	=372
12g	12e	2A 2G	2AA]
12f#	12d#	.	.
12a	12f#	.	.
12g	12e	.	.
12f#	12d	.	.
12e	12c#	.	.
=373	=373	=373	=373
12d	4d	4A 4F#	4D
12f#	.	.	.
12a	.	.	.
12dd	4r	4r	4r
12ff#	.	.	.
12gg	.	.	.
=374	=374	=374	=374
12aa	4dd 4f#	4d	2r
12gg#	.	.	.
12bb	.	.	.
12aa	4dd 4f#	4d	.
12gg	.	.	.
12ff#	.	.	.
=375	=375	=375	=375
12ee	4cc# 4g	4A	2r
12dd#	.	.	.
12ff#	.	.	.
12ee	4r	4r	.
12gg	.	.	.
12ff#	.	.	.
=376	=376	=376	=376
12gg	4cc# 4e	4g 4A	2r
12ff#	.	.	.
12aa	.	.	.
12gg	4cc# 4e	4g 4A	.
12ff#	.	.	.
12ee	.	.	.
=377	=377	=377	=377
2dd	12dd	4f# 4d	2r
.	12a	.	.
.	12f#	.	.
.	12d	4r	.
.	12f#	.	.
.	12g	.	.
=378	=378	=378	=378
[2ddd	12a	4A 4F#	4D
.	12g#	.	.
.	12b	.	.
.	12a	4A 4F#	4D
.	12g	.	.
.	12f#	.	.
=379	=379	=379	=379
4ddd]	12e	4A 4G	4AA
.	12d#	.	.
.	12f#	.	.
8.ccc#	12e	4r	4r
.	12g	.	.
.	12f#	.	.
16bb	.	.	.
=380	=380	=380	=380
4.ccc#	12g	4A 4E	4AA
.	12f#	.	.
.	12a	.	.
.	12g	4A 4E	4AA
.	12f#	.	.
16bb	.	.	.
.	12e	.	.
16ccc#	.	.	.
=381	=381	=381	=381
4ddd	4d	4A 4F#	4D
4r	4r	4r	4r
=382	=382	=382	=382
4aa 4cc# 4e	4cc# 4e 4A	4A	4AA
4r	4r	4r	4r
=383	=383	=383	=383
4ff# 4a 4d	4dd 4f# 4A	4D	4DD
4r	4r	4r	4r
==	==	==	==
*-	*-	*-	*-
!!!RWG1: This file contains only pitch and duration data.
!!!RWG2: Transposing instruments are not transposed.
!!!RWG3: Spines may have incompatible meters.
!!!RWG4: Durations of rests and tied notes may be interpreted.
!!!RWG: Key is interpreted using the Humdrum key tool.
!!!AFT: stage1
!!!END: 1997/04/15
!!format changes:
!!content changes:
!!public access: complete
!!!KEY: 1946929664
!!!EMD: Converted from MuseData to Humdrum Dec 16, 2000, by Andreas Kornstaedt using muse2kern.
